images/Icon 4.svg

<svg width="264" height="112" viewBox="0 0 264 112" fill="none" xmlns="http://www.w3.org/2000/svg">
<rect width="264" height="112" rx="4" fill="#F4F4FD"/>
<path d="M163.948 33.0481C163.822 32.663 163.489 32.3815 163.087 32.3227L159.267 31.767L157.557 28.3046C157.198 27.5749 156.002 27.5749 155.644 28.3046L153.934 31.767L150.113 32.3229C149.711 32.3815 149.378 32.6621 149.251 33.0482C149.127 33.4344 149.23 33.8589 149.521 34.1416L152.287 36.8372L151.634 40.6431C151.566 41.0431 151.73 41.4474 152.058 41.6864C152.39 41.9275 152.823 41.9573 153.182 41.7674L156.6 39.97L160.018 41.7674C160.173 41.8495 160.345 41.89 160.515 41.89C160.735 41.89 160.956 41.8218 161.142 41.6863C161.47 41.4474 161.635 41.043 161.565 40.643L160.913 36.8371L163.679 34.1415C163.968 33.8578 164.073 33.4343 163.948 33.0481ZM159.022 35.702C158.772 35.9463 158.656 36.3004 158.716 36.6461L159.098 38.8743L157.097 37.8226C156.941 37.7404 156.771 37.6999 156.6 37.6999C156.429 37.6999 156.26 37.7404 156.103 37.8226L154.102 38.8743L154.483 36.6461C154.543 36.3004 154.428 35.9474 154.177 35.702L152.557 34.1234L154.795 33.798C155.143 33.7479 155.442 33.5293 155.598 33.2145L156.599 31.1878L157.599 33.2145C157.755 33.5291 158.055 33.7479 158.402 33.798L160.64 34.1234L159.022 35.702Z" fill="#4D5AE5"/>
<path d="M152.267 65.0444H150.134V67.1778H152.267V65.0444Z" fill="#4D5AE5"/>
<path d="M152.267 69.3112H150.134V71.4446H152.267V69.3112Z" fill="#4D5AE5"/>
<path d="M154.4 67.1778H152.267V69.3112H154.4V67.1778Z" fill="#4D5AE5"/>
<path d="M150.134 67.1778H148V69.3112H150.134V67.1778Z" fill="#4D5AE5"/>
<path d="M144.8 76.778H142.667V78.9113H144.8V76.778Z" fill="#4D5AE5"/>
<path d="M144.8 81.0446H142.667V83.1781H144.8V81.0446Z" fill="#4D5AE5"/>
<path d="M146.934 78.9113H144.8V81.0448H146.934V78.9113Z" fill="#4D5AE5"/>
<path d="M142.667 78.9113H140.533V81.0448H142.667V78.9113Z" fill="#4D5AE5"/>
<path d="M132 72.5113H129.867V74.6447H132V72.5113Z" fill="#4D5AE5"/>
<path d="M132 76.778H129.867V78.9113H132V76.778Z" fill="#4D5AE5"/>
<path d="M134.133 74.6445H132V76.7779H134.133V74.6445Z" fill="#4D5AE5"/>
<path d="M129.867 74.6445H127.733V76.7779H129.867V74.6445Z" fill="#4D5AE5"/>
<path d="M111.733 36.2439H109.6V38.3773H111.733V36.2439Z" fill="#4D5AE5"/>
<path d="M111.733 40.5108H109.6V42.6442H111.733V40.5108Z" fill="#4D5AE5"/>
<path d="M113.866 38.3774H111.733V40.5108H113.866V38.3774Z" fill="#4D5AE5"/>
<path d="M109.6 38.3774H107.466V40.5108H109.6V38.3774Z" fill="#4D5AE5"/>
<path d="M149.43 52.3189C148.855 51.5434 148.011 51.0443 147.053 50.9098C146.091 50.7733 145.141 51.026 144.373 51.6138L141.87 53.5327L141.869 53.5338L138.073 56.368L135.358 55.2864C140.2 53.1136 143.585 48.2698 143.585 42.6462C143.585 35.0002 137.34 28.7793 129.663 28.7793C121.986 28.7793 115.74 35.0002 115.74 42.6462C115.74 45.4175 116.569 47.9945 117.981 50.163L112.453 50.115C112.45 50.115 112.447 50.115 112.443 50.115C112.426 50.115 112.412 50.1235 112.396 50.1247C112.291 50.1289 112.187 50.1503 112.086 50.1865C112.06 50.1962 112.034 50.2015 112.009 50.2132C111.997 50.2185 111.984 50.2195 111.971 50.2259L105.505 53.4185C105.504 53.4185 105.503 53.4185 105.503 53.4195L101.716 55.2405C101.674 55.2586 101.631 55.2831 101.59 55.3109C100.08 56.3156 99.5663 58.289 100.393 59.9018C100.834 60.7594 101.583 61.391 102.505 61.68C102.86 61.7908 103.223 61.8453 103.584 61.8453C104.163 61.8453 104.737 61.7035 105.262 61.423L108.038 59.9467L112.566 57.6085L115.28 57.5925L104.396 68.4237C104.395 68.4248 104.394 68.4248 104.393 68.4258L101.716 71.0925C101.083 71.7219 100.735 72.557 100.735 73.4478C100.735 74.3374 101.083 75.1747 101.716 75.8052C102.365 76.4516 103.22 76.7758 104.074 76.7758C104.93 76.7758 105.783 76.4516 106.435 75.8052L109.063 73.1875L112.545 70.588L114.346 72.3821L110.823 75.8904C110.822 75.8916 110.821 75.8916 110.82 75.8926L108.142 78.5592C107.51 79.1886 107.162 80.0237 107.162 80.9145C107.162 81.8041 107.51 82.6414 108.142 83.2719C108.792 83.9183 109.647 84.2426 110.502 84.2426C111.356 84.2426 112.212 83.9183 112.862 83.2719L115.541 80.6052L119.826 76.3386C119.827 76.3374 119.827 76.3364 119.828 76.3353L121.847 74.3353L121.839 74.3278C121.852 74.315 121.87 74.3106 121.883 74.2969L132.215 62.9805L139.157 63.9682C139.207 63.9757 139.257 63.9789 139.307 63.9789C139.437 63.9789 139.561 63.948 139.682 63.9021C139.717 63.8894 139.748 63.8722 139.781 63.8552C139.819 63.836 139.86 63.8254 139.896 63.8009L146.323 59.5342C146.347 59.5182 146.359 59.4925 146.382 59.4755C146.407 59.4553 146.439 59.4468 146.463 59.4243L149.006 57.0424C150.329 55.8026 150.511 53.7717 149.43 52.3189ZM104.261 59.5403C103.914 59.7259 103.521 59.7632 103.144 59.6438C102.771 59.5275 102.468 59.2725 102.291 58.928C101.969 58.3008 102.155 57.537 102.719 57.1243L105.347 55.8602L105.979 57.7088L106.245 58.4853L104.261 59.5403ZM111.255 55.8849L108.158 57.4849L107.648 55.9915L107.281 54.9184L111.334 52.9172L111.255 55.8849ZM141.454 42.644C141.454 44.4808 141.015 46.2132 140.256 47.763L131.893 43.9646C131.806 42.8179 131.211 41.8142 130.317 41.189L133.245 31.4684C138 32.981 141.454 37.4173 141.454 42.644ZM117.876 42.644C117.876 36.1746 123.165 30.9105 129.665 30.9105C130.171 30.9105 130.665 30.9531 131.155 31.015L128.291 40.5224C128.253 40.5213 128.216 40.5106 128.177 40.5106C126.112 40.5106 124.432 42.1853 124.432 44.2441C124.432 46.3027 126.112 47.9775 128.177 47.9775C129.566 47.9775 130.766 47.2106 131.413 46.0883L139.138 49.5978C136.989 52.4906 133.549 54.3776 129.665 54.3776C123.165 54.3776 117.876 49.1135 117.876 42.644ZM129.789 44.2441C129.789 45.1262 129.065 45.8441 128.177 45.8441C127.288 45.8441 126.565 45.1262 126.565 44.2441C126.565 43.3619 127.288 42.644 128.177 42.644C129.065 42.644 129.789 43.3619 129.789 44.2441ZM104.93 74.2925C104.457 74.7608 103.692 74.7598 103.221 74.2936C102.994 74.0664 102.869 73.7668 102.869 73.4478C102.869 73.1299 102.994 72.8301 103.221 72.6051L105.145 70.6882L106.847 72.3832L104.93 74.2925ZM111.357 81.7594C110.885 82.2276 110.119 82.2288 109.648 81.7605C109.42 81.5333 109.295 81.2336 109.295 80.9146C109.295 80.5967 109.42 80.297 109.648 80.072L111.573 78.1541L112.378 78.9552L113.276 79.8491L111.357 81.7594ZM118.321 74.8217C118.32 74.8227 118.319 74.8227 118.318 74.8238L114.788 78.3438L113.982 77.5427L113.084 76.6488L116.611 73.1384C116.611 73.1384 116.611 73.1384 116.611 73.1374C116.612 73.1363 116.613 73.1363 116.614 73.1353C116.694 73.0553 116.744 72.9593 116.793 72.8644C116.807 72.8366 116.834 72.8131 116.845 72.7844C116.879 72.7023 116.884 72.6138 116.897 72.5272C116.903 72.4781 116.924 72.4324 116.924 72.3821C116.924 72.3106 116.899 72.2414 116.884 72.1709C116.871 72.1069 116.871 72.0417 116.847 71.98C116.806 71.8797 116.737 71.7912 116.664 71.7047C116.644 71.6812 116.636 71.6514 116.614 71.629C116.614 71.629 116.614 71.629 116.613 71.629C116.612 71.628 116.612 71.6257 116.611 71.6247L113.397 68.4247C113.363 68.3906 113.319 68.3767 113.281 68.3479C113.224 68.3042 113.17 68.2637 113.107 68.2327C113.046 68.2028 112.984 68.1847 112.92 68.1676C112.852 68.1483 112.786 68.1334 112.714 68.1281C112.649 68.1238 112.588 68.1302 112.523 68.1377C112.452 68.1462 112.385 68.1558 112.315 68.1782C112.248 68.1996 112.189 68.2326 112.127 68.2678C112.087 68.2902 112.042 68.2977 112.005 68.3254L108.458 70.973L106.657 69.1788L111.455 64.4065L120.176 72.9838L118.321 74.8217ZM131.958 60.7883C131.927 60.7841 131.899 60.7958 131.868 60.7937C131.79 60.7894 131.715 60.7948 131.637 60.8076C131.577 60.8182 131.519 60.8299 131.461 60.8502C131.393 60.8737 131.331 60.9057 131.268 60.9441C131.208 60.9803 131.154 61.0187 131.102 61.0667C131.076 61.0891 131.045 61.0998 131.022 61.1253L121.625 71.4167L112.969 62.9035L118.635 57.2671C119.053 56.8511 119.055 56.1759 118.639 55.7577C118.429 55.5476 118.152 55.4441 117.876 55.4452V55.4442L113.439 55.4709L113.494 52.2559L119.702 52.3093C122.232 54.8971 125.761 56.511 129.665 56.511C130.54 56.511 131.393 56.4204 132.224 56.2656C132.304 56.3296 132.383 56.3948 132.483 56.4353L137.302 58.3553L137.607 59.8721L137.964 61.6427L131.958 60.7883ZM140.041 61.1446L139.414 58.0288L142.307 55.8687L143.065 56.8735L144.201 58.3818L140.041 61.1446ZM147.548 55.4826L145.872 57.0528L144.01 54.5802L145.673 53.3056C145.983 53.0667 146.374 52.9696 146.758 53.0197C147.145 53.0741 147.486 53.2757 147.718 53.5882C148.152 54.1717 148.078 54.9856 147.548 55.4826Z" fill="#2E2F42"/>
<path d="M127.204 61.0881L122.918 56.8214C122.503 56.4065 121.829 56.4065 121.413 56.8214L117.128 61.0881C116.928 61.2897 116.815 61.5606 116.815 61.8443C116.815 62.1281 116.927 62.4001 117.128 62.6006L121.413 66.8673C121.621 67.0742 121.894 67.1777 122.166 67.1777C122.438 67.1777 122.711 67.0742 122.918 66.8673L127.204 62.6006C127.405 62.4001 127.519 62.1281 127.519 61.8443C127.519 61.5606 127.406 61.2886 127.204 61.0881ZM122.166 64.606L119.393 61.8443L122.166 59.0827L124.941 61.8443L122.166 64.606Z" fill="#2E2F42"/>
<path d="M134.328 34.1415L133.813 36.2131C133.955 36.2483 137.289 37.1166 137.289 40.5108H139.422C139.422 36.4765 136.091 34.5799 134.328 34.1415Z" fill="#2E2F42"/>
<path d="M139.422 42.644H137.289V44.7775H139.422V42.644Z" fill="#2E2F42"/>
</svg>

<svg xmlns="http://www.w3.org/2000/svg" width="264" height="112" fill="none">
  <rect width="264" height="112" fill="#F4F4FD" rx="4"/>
  <path fill="#4D5AE5" d="M163.948 33.048a1.069 1.069 0 0 0-.861-.725l-3.82-.556-1.71-3.462c-.359-.73-1.555-.73-1.913 0l-1.71 3.462-3.821.556a1.07 1.07 0 0 0-.862.725c-.124.386-.021.81.27 1.094l2.766 2.695-.653 3.806c-.068.4.096.804.424 1.043.332.242.765.271 1.124.081l3.418-1.797 3.418 1.797a1.064 1.064 0 0 0 1.124-.08c.328-.24.493-.644.423-1.044l-.652-3.806 2.766-2.696a1.07 1.07 0 0 0 .269-1.093Zm-4.926 2.654c-.25.244-.366.598-.306.944l.382 2.228-2.001-1.051a1.063 1.063 0 0 0-.994 0l-2.001 1.051.381-2.228a1.066 1.066 0 0 0-.306-.944l-1.62-1.579 2.238-.325c.348-.05.647-.269.803-.584l1.001-2.026 1 2.027c.156.314.456.533.803.583l2.238.325-1.618 1.579ZM152.267 65.044h-2.133v2.134h2.133v-2.134ZM152.267 69.311h-2.133v2.134h2.133V69.31ZM154.4 67.178h-2.133v2.133h2.133v-2.133ZM150.134 67.178H148v2.133h2.134v-2.133ZM144.8 76.778h-2.133v2.133h2.133v-2.133ZM144.8 81.045h-2.133v2.133h2.133v-2.133ZM146.934 78.911H144.8v2.134h2.134V78.91ZM142.667 78.911h-2.134v2.134h2.134V78.91ZM132 72.511h-2.133v2.134H132V72.51ZM132 76.778h-2.133v2.133H132v-2.133ZM134.133 74.644H132v2.134h2.133v-2.134ZM129.867 74.644h-2.134v2.134h2.134v-2.134ZM111.733 36.244H109.6v2.133h2.133v-2.133ZM111.733 40.51H109.6v2.134h2.133v-2.133ZM113.866 38.377h-2.133v2.134h2.133v-2.134ZM109.6 38.377h-2.134v2.134h2.134v-2.134Z"/>
  <path fill="#2E2F42" d="M149.43 52.319a3.549 3.549 0 0 0-2.377-1.41 3.554 3.554 0 0 0-2.68.705l-2.503 1.919h-.001l-3.796 2.835-2.715-1.082c4.842-2.172 8.227-7.016 8.227-12.64 0-7.646-6.245-13.867-13.922-13.867-7.677 0-13.923 6.221-13.923 13.867 0 2.771.829 5.349 2.241 7.517l-5.528-.048h-.01c-.017 0-.031.008-.047.01a1.042 1.042 0 0 0-.31.062c-.026.01-.052.015-.077.026-.012.005-.025.006-.038.013l-6.466 3.193h-.002l-3.787 1.822a.777.777 0 0 0-.126.07 3.56 3.56 0 0 0-1.197 4.59 3.551 3.551 0 0 0 2.112 1.779 3.553 3.553 0 0 0 2.757-.257l2.776-1.476 4.528-2.339 2.714-.015-10.884 10.83-.003.003-2.677 2.666a3.297 3.297 0 0 0-.981 2.356 3.333 3.333 0 0 0 3.339 3.328c.856 0 1.709-.324 2.361-.97l2.628-2.618 3.482-2.6 1.801 1.794-3.523 3.508-.003.003-2.678 2.666a3.3 3.3 0 0 0-.98 2.356c0 .89.348 1.726.98 2.357.65.646 1.505.97 2.36.97a3.34 3.34 0 0 0 2.36-.97l2.679-2.667 4.285-4.266.002-.004 2.019-2-.008-.007c.013-.013.031-.017.044-.031l10.332-11.316 6.942.987a1.053 1.053 0 0 0 .525-.066c.035-.013.066-.03.099-.047.038-.019.079-.03.115-.054l6.427-4.267c.024-.016.036-.041.059-.059.025-.02.057-.028.081-.05l2.543-2.383a3.559 3.559 0 0 0 .424-4.723Zm-45.169 7.221c-.347.186-.74.223-1.117.104a1.43 1.43 0 0 1-.425-2.52l2.628-1.264.632 1.849.266.776-1.984 1.055Zm6.994-3.655-3.097 1.6-.51-1.493-.367-1.074 4.053-2-.079 2.967Zm30.199-13.241c0 1.837-.439 3.57-1.198 5.119l-8.363-3.798a3.72 3.72 0 0 0-1.576-2.776l2.928-9.72c4.755 1.512 8.209 5.948 8.209 11.175Zm-23.578 0c0-6.47 5.289-11.733 11.789-11.733.506 0 1 .042 1.49.104l-2.864 9.507c-.038 0-.075-.011-.114-.011a3.743 3.743 0 0 0-3.745 3.733 3.743 3.743 0 0 0 3.745 3.733c1.389 0 2.589-.766 3.236-1.889l7.725 3.51c-2.149 2.893-5.589 4.78-9.473 4.78-6.5 0-11.789-5.264-11.789-11.734Zm11.913 1.6c0 .882-.724 1.6-1.612 1.6a1.608 1.608 0 0 1-1.612-1.6c0-.882.723-1.6 1.612-1.6.888 0 1.612.718 1.612 1.6ZM104.93 74.293a1.217 1.217 0 0 1-1.709 0 1.188 1.188 0 0 1 0-1.688l1.924-1.917 1.702 1.695-1.917 1.91Zm6.427 7.466a1.215 1.215 0 0 1-1.709.001 1.186 1.186 0 0 1 0-1.688l1.925-1.918.805.801.898.894-1.919 1.91Zm6.964-6.937c-.001 0-.002 0-.003.002l-3.53 3.52-.806-.801-.898-.894 3.527-3.51v-.002c.001 0 .002 0 .003-.002.08-.08.13-.176.179-.27.014-.028.041-.052.052-.08.034-.083.039-.171.052-.258.006-.049.027-.095.027-.145 0-.071-.025-.14-.04-.211-.013-.064-.013-.13-.037-.191-.041-.1-.11-.189-.183-.275-.02-.024-.028-.054-.05-.076h-.001l-.002-.004-3.214-3.2c-.034-.034-.078-.048-.116-.077a1.047 1.047 0 0 0-.174-.115 1.002 1.002 0 0 0-.187-.065 1.014 1.014 0 0 0-.206-.04 1.037 1.037 0 0 0-.191.01 1.084 1.084 0 0 0-.208.04.992.992 0 0 0-.188.09c-.04.022-.085.03-.122.057l-3.547 2.648-1.801-1.794 4.798-4.773 8.721 8.578-1.855 1.838Zm13.637-14.034c-.031-.004-.059.008-.09.006a1.106 1.106 0 0 0-.407.056.988.988 0 0 0-.193.094 1 1 0 0 0-.166.123c-.026.022-.057.033-.08.058l-9.397 10.292-8.656-8.514 5.666-5.636a1.067 1.067 0 0 0-.759-1.822l-4.437.026.055-3.215 6.208.053a13.897 13.897 0 0 0 9.963 4.202c.875 0 1.728-.09 2.559-.245.08.064.159.129.259.17l4.819 1.92.305 1.516.357 1.77-6.006-.854Zm8.083.357-.627-3.116 2.893-2.16.758 1.005 1.136 1.508-4.16 2.763Zm7.507-5.662-1.676 1.57-1.862-2.473 1.663-1.274c.31-.24.701-.336 1.085-.286a1.435 1.435 0 0 1 .79 2.463Z"/>
  <path fill="#2E2F42" d="m127.204 61.088-4.286-4.267a1.065 1.065 0 0 0-1.505 0l-4.285 4.267a1.073 1.073 0 0 0 0 1.513l4.285 4.266a1.065 1.065 0 0 0 1.505 0l4.286-4.266a1.07 1.07 0 0 0 0-1.513Zm-5.038 3.518-2.773-2.762 2.773-2.761 2.775 2.761-2.775 2.762ZM134.328 34.142l-.515 2.071c.142.035 3.476.904 3.476 4.298h2.133c0-4.035-3.331-5.931-5.094-6.37ZM139.422 42.644h-2.133v2.134h2.133v-2.134Z"/>
</svg>
